X: 20493
T: John L. Sullivan
R: reel
M: 4/4
K: Dmajor
|:D<D F>D A>D F>E|D<d d>c d>e f<a|D<D F>D A>D F>D|E<A, A,>B, A,>B, C<E|
D<D F>D A>D F>E|D<d d>c d>e f<g|a>f g>e f<d e>c|d>B A>F E<G F>E:|
|:D<d d>B A<F F>B|A<F F>B A<F F>A|D<d d>B A<F F>A|B<e e>f e2 f>e|
(3ddd d<e c2 c<d|B2 B>A B>c d<e|f>g f>e d>c B<A|B<d A>F E<G F>E:|

